X: 27009
T: Miss Galvin's
R: hornpipe
M: 4/4
K: Dmajor
|:d2cA GEFE|D2FA DAFA|d2cA GE~E2|1 (3Bcd eg fdef:|2 (3Bcd ec d3e||
faaf ~d3e|faaf ~g3a|fgaf dcA2|(3Bcd ef g2ag|
faaf dcde|fzaf g2ag|fAeA dcA2|(3Bcd ef g2fe||

